svg/Pictogram/pictogram-din-attacher_la_ceinture_de_scurit.svg

<svg xmlns="http://www.w3.org/2000/svg" viewBox="0 0 58.735 58.735"><defs><clipPath><path d="m28.21 649.19h51.02v-51.02h-51.02v51.02"/></clipPath><clipPath><path d="m28.21 331.71h51.02v-51.02h-51.02v51.02"/></clipPath><clipPath><path d="m28.21 169.97h45.35v-45.35h-45.35v45.35"/></clipPath><clipPath><path d="m28.21 728.56h51.02v-51.02h-51.02v51.02"/></clipPath><clipPath id="1"><path d="m-8.642 850.45h612.28v-858.9h-612.28v858.9"/></clipPath><clipPath id="0"><path d="m0 842.04h594.96v-842.04h-594.96v842.04"/></clipPath><clipPath id="2"><path d="m28.21 552.81h51.02v-51.02h-51.02v51.02"/></clipPath></defs><g transform="translate(-2598.68 1085.05)"><g clip-path="url(#2)" transform="matrix(1.25 0 0-1.25 2560.89-396.56)"><g clip-path="url(#1)"><g clip-path="url(#0)" fill-rule="evenodd"><path d="m53.72 550.68c12.881 0 23.386-10.505 23.386-23.386 0-12.88-10.505-23.386-23.386-23.386-12.88 0-23.386 10.506-23.386 23.386 0 12.881 10.506 23.386 23.386 23.386z" fill="#fff" stroke="#000" stroke-width=".216" stroke-miterlimit="2.613"/><path d="m53.72 549.9c12.451 0 22.606-10.155 22.606-22.606 0-12.451-10.155-22.606-22.606-22.606-12.451 0-22.606 10.155-22.606 22.606 0 12.451 10.155 22.606 22.606 22.606" fill="#007fc4"/><g fill="#fff"><path d="m47.618 516.82l-3.188 1.719 1.719 2.266 3.163-1.868-1.694-2.117"/><path d="m46.995 516.55v-.1l-.024-.1-.025-.05-.075-.049-.075-.05-.121-.022c-.76.236-1.903 1.047-2.494 1.442l-.025.074v.149l.025.1.025.075.05.05.05.075.075.049c.655-.374 2.446-1.221 2.614-1.643"/><path d="m49.661 517.57l-1.769-2.217-.15.872 1.869 2.316.05-.971"/><path d="m47.02 515.21l-.3.053-3.113 2.213.25.199c.893-.558 2.2-1.547 3.163-1.868l.274.125.124-.224-.398-.498"/><path d="m43.23 512.64l-.174.05-.175.075-.174.075-.199.099-.2.1-.224.125-.224.124-.224.124-.224.15-.199.149-.224.15-.2.174-.199.174-.174.175-.175.199-.149.175.224.099.448.249.225.124.448.25.224.149.199.149.224.125.224.15.2.149.224.149.224.175.199.149.199.149.225.175.05-.05 2.814-1.967-.15-.175-.149-.174-.199-.175-.175-.174-.224-.174-.224-.175-.224-.174-.249-.15-.225-.173-.223-.15-.225-.124-.224-.125-.199-.125-.2-.099-.174-.1-.149-.075"/><path d="m43.509 510.25l-.199.024-3.188 2.466.473.822 2.341-1.22c1.395.697 2.656 1.488 3.736 2.615l.373-.125c-.252-1.137-3.224-3.722-3.408-4.504l-.128-.078"/><path d="m58.85 507.88c-.338.422 1 2.298 1.235 2.831.084.894 1.338 3.149 2.128 3.544.724-.912 1.625-2.286 1.793-3.461-.824-.825-2.372-.749-3.487-.872-.805-.46-.963-2.042-1.669-2.042"/><path d="m49.36 507.96l-.025-.05-.025-.05-.05-.049h-.075l-.05.025-.049.024-.05.05v.026l-.025.049-.025.025-.025.025-.871 1.594-.225.324-.224.049c-1.07.119-2.185.209-3.163.698.275.824 1.212 2.025 1.943 2.391 1.068-.107 2.632-4.055 2.889-4.956l.025-.05.025-.025v-.1"/><path d="m44.31 519.32l-.224-.299c-.564.339-1.142 1.023-1.469 1.569.066 2.347.548 4.532.945 6.849-.689 2.897-1.051 5.793-1.319 8.742l.149.199c2.697 1.471 6.2 1.547 9.19 1.818l.199-.971c-1.939-1.455-4.195-2.267-6.226-3.537-1.154-4.233-2.155-8.748-2.416-13.174l1.171-1.196"/><path d="m64.5 510.62c-3.507 7.846-7.165 12.343-14.495 7.646l-.149.747-.05.05c-1.146.677-2.33 1.314-3.462 1.992 3.627 5.183 8.238 9.647 11.681 14.943l-1.071.847c-.831.208-1.115-1.39-2.292-1.096 1.112.667 1.557.894 2.042 2.317l2.666-.299.298.373c-.879.146-1.931.156-2.714.573.194.014.455.144.548.324.436 1.2 1.209 1.813-.05 1.992.131.921.303 1.879.498 2.79-.254.763-1.01 1.449-1.743 1.743v-.274l-.947.249.449-.697c-1.377 0-2.155.405-3.388 1.095l-.822-1.419c-.182.008-.459.185-.548.025l-.398-.722c-.341-1.108.423-2.01.423-3.063l-.017-.179c-.517.34-.824.015-.726-.188.326-.678.443-1.276 1.168-1.904l-4.185-.295c.063 1.339.154 3.974 1.046 5.18l1.718.374.573 1.295.099.075c.276.206 1.371.653 1.594.971.712.057 1.116.381 1.47.623l.125.075.174-.026c.881-.125 1.783-.327 2.64-.572l1.743-2.092.15-.449c2.809-.432 1.958-1.272 2.44-3.362l.175-.323c1.121.896 1.984 2.52 2.914 3.636l3.262-2.441-3.237-4.458c.274-.083.547-.166.821-.249 1.128-2.102-.158-4.657-.074-7.098l.05-.722c.282-2.732.885-5.881 1.195-8.205l-1.021-3.227c.73-1.445 1.739-2.696 2.192-4.334-.118-.587-2.058-2.241-2.765-2.241m1.046 9.888l-1.644-1.619-1.594 1.992-.448.473-.174.175-.174.174-.1.075-.075.075-.099.049-.075.075-.1.075-.075.049-.099.05-.1.05-.074.05-.1.075-.1.049-.074.05-1.345.723-.15.049-.149.05-.174.05-.15.05-.15.049-.149.05-.149.025-.175.05-.149.05-.15.025-.149.025-.174.024-.15.025-.149.025-.149.025-.175.025-.149.025h-.15l-.174.025h-.149l-.15.025h-.971l-.15-.025h-.324l-.149-.025h-.174l7.671 10.04.747-.149.149-.2.199-.299.175-.448.199-.523.199-.598.174-.672.2-.723.174-.747.174-.771.175-.748.149-.697.125-.673.124-.622.1-.523.074-.448.05-.3.623-4.158"/></g></g></g></g></g></svg>

<?xml version="1.0" encoding="UTF-8" standalone="no"?>
<!-- Created with Inkscape (http://www.inkscape.org/) --><svg height="58.735001" id="svg3962" inkscape:output_extension="org.inkscape.output.svg.inkscape" inkscape:version="0.46" sodipodi:docname="Attacher la ceinture de sécurité.svg" sodipodi:version="0.32" version="1.0" width="58.735001" xmlns="http://www.w3.org/2000/svg" xmlns:cc="http://creativecommons.org/ns#" xmlns:dc="http://purl.org/dc/elements/1.1/" xmlns:inkscape="http://www.inkscape.org/namespaces/inkscape" xmlns:rdf="http://www.w3.org/1999/02/22-rdf-syntax-ns#" xmlns:sodipodi="http://sodipodi.sourceforge.net/DTD/sodipodi-0.dtd" xmlns:svg="http://www.w3.org/2000/svg">
  <metadata>
    <rdf:RDF xmlns:cc="http://web.resource.org/cc/" xmlns:dc="http://purl.org/dc/elements/1.1/" xmlns:rdf="http://www.w3.org/1999/02/22-rdf-syntax-ns#">
      <cc:Work rdf:about="">
        <dc:title></dc:title>
        <dc:description></dc:description>
        <dc:subject>
          <rdf:Bag>
            <rdf:li>unsorted</rdf:li>
          </rdf:Bag>
        </dc:subject>
        <dc:publisher>
          <cc:Agent rdf:about="http://www.openclipart.org/">
            <dc:title>Open Clip Art Library, Source: Wikimedia Commons, Source: Wikimedia Commons, Source: Wikimedia Commons</dc:title>
          </cc:Agent>
        </dc:publisher>
        <dc:creator>
          <cc:Agent>
            <dc:title></dc:title>
          </cc:Agent>
        </dc:creator>
        <dc:rights>
          <cc:Agent>
            <dc:title></dc:title>
          </cc:Agent>
        </dc:rights>
        <dc:date></dc:date>
        <dc:format>image/svg+xml</dc:format>
        <dc:type rdf:resource="http://purl.org/dc/dcmitype/StillImage"/>
        <cc:license rdf:resource="http://en.wikipedia.org/wiki/Public_domain"/>
        <dc:language>en</dc:language>
      </cc:Work>
    </rdf:RDF>
  </metadata>
  <defs id="defs3964">
    <clipPath clipPathUnits="userSpaceOnUse" id="clipPath7094">
      <path d="M 0,842.04 L 594.96,842.04 L 594.96,0 L 0,0 L 0,842.04 z" id="path7096"/>
    </clipPath>
    <clipPath clipPathUnits="userSpaceOnUse" id="clipPath7088">
      <path d="M -8.642,850.449 L 603.642,850.449 L 603.642,-8.449 L -8.642,-8.449 L -8.642,850.449 z" id="path7090"/>
    </clipPath>
    <clipPath clipPathUnits="userSpaceOnUse" id="clipPath7082">
      <path clip-rule="evenodd" d="M 28.209,552.811 L 79.232,552.811 L 79.232,501.787 L 28.209,501.787 L 28.209,552.811 z" id="path7084"/>
    </clipPath>
    <clipPath clipPathUnits="userSpaceOnUse" id="clipPath7038">
      <path d="M 0,842.04 L 594.96,842.04 L 594.96,0 L 0,0 L 0,842.04 z" id="path7040"/>
    </clipPath>
    <clipPath clipPathUnits="userSpaceOnUse" id="clipPath7032">
      <path d="M -8.642,850.449 L 603.642,850.449 L 603.642,-8.449 L -8.642,-8.449 L -8.642,850.449 z" id="path7034"/>
    </clipPath>
    <clipPath clipPathUnits="userSpaceOnUse" id="clipPath7026">
      <path clip-rule="evenodd" d="M 28.209,728.559 L 79.232,728.559 L 79.232,677.535 L 28.209,677.535 L 28.209,728.559 z" id="path7028"/>
    </clipPath>
    <clipPath clipPathUnits="userSpaceOnUse" id="clipPath5627">
      <path d="M 0,842.04 L 594.96,842.04 L 594.96,0 L 0,0 L 0,842.04 z" id="path5629"/>
    </clipPath>
    <clipPath clipPathUnits="userSpaceOnUse" id="clipPath5621">
      <path d="M -8.642,850.449 L 603.642,850.449 L 603.642,-8.449 L -8.642,-8.449 L -8.642,850.449 z" id="path5623"/>
    </clipPath>
    <clipPath clipPathUnits="userSpaceOnUse" id="clipPath5615">
      <path clip-rule="evenodd" d="M 28.209,331.709 L 79.232,331.709 L 79.232,280.685 L 28.209,280.685 L 28.209,331.709 z" id="path5617"/>
    </clipPath>
    <clipPath clipPathUnits="userSpaceOnUse" id="clipPath5261">
      <path d="M 0,842.04 L 594.96,842.04 L 594.96,0 L 0,0 L 0,842.04 z" id="path5263"/>
    </clipPath>
    <clipPath clipPathUnits="userSpaceOnUse" id="clipPath5255">
      <path d="M -8.642,850.449 L 603.642,850.449 L 603.642,-8.449 L -8.642,-8.449 L -8.642,850.449 z" id="path5257"/>
    </clipPath>
    <clipPath clipPathUnits="userSpaceOnUse" id="clipPath5249">
      <path clip-rule="evenodd" d="M 28.209,649.189 L 79.232,649.189 L 79.232,598.165 L 28.209,598.165 L 28.209,649.189 z" id="path5251"/>
    </clipPath>
    <clipPath clipPathUnits="userSpaceOnUse" id="clipPath3536">
      <path d="M 0,842.04 L 594.96,842.04 L 594.96,0 L 0,0 L 0,842.04 z" id="path3538"/>
    </clipPath>
    <clipPath clipPathUnits="userSpaceOnUse" id="clipPath3530">
      <path d="M -8.642,850.449 L 603.642,850.449 L 603.642,-8.449 L -8.642,-8.449 L -8.642,850.449 z" id="path3532"/>
    </clipPath>
    <clipPath clipPathUnits="userSpaceOnUse" id="clipPath3524">
      <path clip-rule="evenodd" d="M 28.209,169.974 L 73.563,169.974 L 73.563,124.62 L 28.209,124.62 L 28.209,169.974 z" id="path3526"/>
    </clipPath>
    <inkscape:perspective id="perspective3970" inkscape:persp3d-origin="372.04724 : 350.78739 : 1" inkscape:vp_x="0 : 526.18109 : 1" inkscape:vp_y="0 : 1000 : 0" inkscape:vp_z="744.09448 : 526.18109 : 1" sodipodi:type="inkscape:persp3d"/>
  </defs>
  <sodipodi:namedview bordercolor="#666666" borderopacity="1.0" gridtolerance="10000" guidetolerance="10" id="base" inkscape:current-layer="layer1" inkscape:cx="375" inkscape:cy="520" inkscape:document-units="px" inkscape:pageopacity="0.0" inkscape:pageshadow="2" inkscape:window-height="687" inkscape:window-width="640" inkscape:window-x="0" inkscape:window-y="-4" inkscape:zoom="0.35" objecttolerance="10" pagecolor="#ffffff" showgrid="false"/>
  <g id="layer1" inkscape:groupmode="layer" inkscape:label="Layer 1" transform="translate(-2598.6772,1085.05)">
    <g id="g7078" transform="matrix(1.25,0,0,-1.25,2560.8947,-396.56121)">
      <g clip-path="url(#clipPath7082)" id="g7080">
        <g clip-path="url(#clipPath7088)" id="g7086">
          <g clip-path="url(#clipPath7094)" id="g7092">
            <path d="M 53.72,550.683 C 66.601,550.683 77.106,540.178 77.106,527.297 C 77.106,514.417 66.601,503.911 53.72,503.911 C 40.84,503.911 30.334,514.417 30.334,527.297 C 30.334,540.178 40.84,550.683 53.72,550.683 z" id="path7098" style="fill:#ffffff;fill-opacity:1;fill-rule:evenodd;stroke:#000000;stroke-width:0.21600001;stroke-linecap:butt;stroke-linejoin:miter;stroke-miterlimit:2.61299992;stroke-dasharray:none;stroke-opacity:1"/>
            <path d="M 53.72,549.903 C 66.171,549.903 76.326,539.748 76.326,527.297 C 76.326,514.846 66.171,504.691 53.72,504.691 C 41.269,504.691 31.114,514.846 31.114,527.297 C 31.114,539.748 41.269,549.903 53.72,549.903" id="path7100" style="fill:#007fc4;fill-opacity:1;fill-rule:evenodd;stroke:none"/>
            <path d="M 47.618,516.824 L 44.43,518.543 L 46.149,520.809 L 49.312,518.941 L 47.618,516.824" id="path7102" style="fill:#ffffff;fill-opacity:1;fill-rule:evenodd;stroke:none"/>
            <path d="M 46.995,516.551 L 46.995,516.451 L 46.971,516.351 L 46.946,516.301 L 46.871,516.252 L 46.796,516.202 L 46.675,516.18 C 45.915,516.416 44.772,517.227 44.181,517.622 L 44.156,517.696 L 44.156,517.845 L 44.181,517.945 L 44.206,518.02 L 44.256,518.07 L 44.306,518.145 L 44.381,518.194 C 45.036,517.82 46.827,516.973 46.995,516.551" id="path7104" style="fill:#ffffff;fill-opacity:1;fill-rule:evenodd;stroke:none"/>
            <path d="M 49.661,517.572 L 47.892,515.355 L 47.742,516.227 L 49.611,518.543 L 49.661,517.572" id="path7106" style="fill:#ffffff;fill-opacity:1;fill-rule:evenodd;stroke:none"/>
            <path d="M 47.021,515.206 L 46.721,515.259 L 43.608,517.472 L 43.858,517.671 C 44.751,517.113 46.058,516.124 47.021,515.803 L 47.295,515.928 L 47.419,515.704 L 47.021,515.206" id="path7108" style="fill:#ffffff;fill-opacity:1;fill-rule:evenodd;stroke:none"/>
            <path d="M 43.235,512.64 L 43.061,512.69 L 42.886,512.765 L 42.712,512.84 L 42.513,512.939 L 42.313,513.039 L 42.089,513.164 L 41.865,513.288 L 41.641,513.412 L 41.417,513.562 L 41.218,513.711 L 40.994,513.861 L 40.794,514.035 L 40.595,514.209 L 40.421,514.384 L 40.246,514.583 L 40.097,514.758 L 40.321,514.857 L 40.769,515.106 L 40.994,515.23 L 41.442,515.48 L 41.666,515.629 L 41.865,515.778 L 42.089,515.903 L 42.313,516.053 L 42.513,516.202 L 42.737,516.351 L 42.961,516.526 L 43.16,516.675 L 43.359,516.824 L 43.584,516.999 L 43.634,516.949 L 46.448,514.982 L 46.298,514.807 L 46.149,514.633 L 45.95,514.458 L 45.775,514.284 L 45.551,514.11 L 45.327,513.935 L 45.103,513.761 L 44.854,513.611 L 44.629,513.438 L 44.406,513.288 L 44.181,513.164 L 43.957,513.039 L 43.758,512.914 L 43.558,512.815 L 43.384,512.715 L 43.235,512.64" id="path7110" style="fill:#ffffff;fill-opacity:1;fill-rule:evenodd;stroke:none"/>
            <path d="M 43.509,510.25 L 43.31,510.274 L 40.122,512.74 L 40.595,513.562 L 42.936,512.342 C 44.331,513.039 45.592,513.83 46.672,514.957 L 47.045,514.832 C 46.793,513.695 43.821,511.11 43.637,510.328 L 43.509,510.25" id="path7112" style="fill:#ffffff;fill-opacity:1;fill-rule:evenodd;stroke:none"/>
            <path d="M 58.85,507.884 C 58.512,508.306 59.851,510.182 60.085,510.715 C 60.169,511.609 61.423,513.864 62.213,514.259 C 62.937,513.347 63.838,511.973 64.006,510.798 C 63.182,509.973 61.634,510.049 60.519,509.926 C 59.714,509.466 59.556,507.884 58.85,507.884" id="path7114" style="fill:#ffffff;fill-opacity:1;fill-rule:evenodd;stroke:none"/>
            <path d="M 49.362,507.958 L 49.337,507.908 L 49.312,507.858 L 49.262,507.809 L 49.187,507.809 L 49.137,507.834 L 49.088,507.858 L 49.038,507.908 L 49.038,507.934 L 49.013,507.983 L 48.988,508.008 L 48.963,508.033 L 48.092,509.627 L 47.867,509.951 L 47.643,510 C 46.573,510.119 45.458,510.209 44.48,510.698 C 44.755,511.522 45.692,512.723 46.423,513.089 C 47.491,512.982 49.055,509.034 49.312,508.133 L 49.337,508.083 L 49.362,508.058 L 49.362,507.958" id="path7116" style="fill:#ffffff;fill-opacity:1;fill-rule:evenodd;stroke:none"/>
            <path d="M 44.306,519.315 L 44.082,519.016 C 43.518,519.355 42.94,520.039 42.613,520.585 C 42.679,522.932 43.161,525.117 43.558,527.434 C 42.869,530.331 42.507,533.227 42.239,536.176 L 42.388,536.375 C 45.085,537.846 48.588,537.922 51.578,538.193 L 51.777,537.222 C 49.838,535.767 47.582,534.955 45.551,533.685 C 44.397,529.452 43.396,524.937 43.135,520.511 L 44.306,519.315" id="path7118" style="fill:#ffffff;fill-opacity:1;fill-rule:evenodd;stroke:none"/>
            <path d="M 64.504,510.623 C 60.997,518.469 57.339,522.966 50.009,518.269 L 49.86,519.016 L 49.81,519.066 C 48.664,519.743 47.48,520.38 46.348,521.058 C 49.975,526.241 54.586,530.705 58.029,536.001 L 56.958,536.848 C 56.127,537.056 55.843,535.458 54.666,535.752 C 55.778,536.419 56.223,536.646 56.708,538.069 L 59.374,537.77 L 59.672,538.143 C 58.793,538.289 57.741,538.299 56.958,538.716 C 57.152,538.73 57.413,538.86 57.506,539.04 C 57.942,540.24 58.715,540.853 57.456,541.032 C 57.587,541.953 57.759,542.911 57.954,543.822 C 57.7,544.585 56.945,545.271 56.211,545.565 L 56.211,545.291 L 55.264,545.54 L 55.713,544.843 C 54.336,544.843 53.558,545.248 52.325,545.938 L 51.503,544.519 C 51.321,544.527 51.044,544.704 50.955,544.544 L 50.557,543.822 C 50.216,542.714 50.98,541.808 50.98,540.759 L 50.963,540.58 C 50.446,540.92 50.139,540.595 50.237,540.392 C 50.563,539.714 50.68,539.116 51.405,538.488 L 47.22,538.193 C 47.283,539.532 47.374,542.167 48.266,543.373 L 49.984,543.747 L 50.557,545.042 L 50.656,545.117 C 50.932,545.323 52.027,545.77 52.25,546.088 C 52.962,546.145 53.366,546.469 53.72,546.711 L 53.845,546.786 L 54.019,546.76 C 54.9,546.635 55.802,546.433 56.659,546.188 L 58.402,544.096 L 58.552,543.647 C 61.361,543.215 60.51,542.375 60.992,540.285 L 61.167,539.962 C 62.288,540.858 63.151,542.482 64.081,543.598 L 67.343,541.157 L 64.106,536.699 C 64.38,536.616 64.653,536.533 64.927,536.45 C 66.055,534.348 64.769,531.793 64.853,529.352 L 64.903,528.63 C 65.185,525.898 65.788,522.749 66.098,520.425 L 65.077,517.198 C 65.807,515.753 66.816,514.502 67.269,512.864 C 67.151,512.277 65.211,510.623 64.504,510.623 z M 65.55,520.511 L 63.906,518.892 L 62.312,520.884 L 61.864,521.357 L 61.69,521.532 L 61.516,521.706 L 61.416,521.781 L 61.341,521.856 L 61.242,521.905 L 61.167,521.98 L 61.067,522.055 L 60.992,522.104 L 60.893,522.154 L 60.793,522.204 L 60.719,522.254 L 60.619,522.329 L 60.519,522.378 L 60.445,522.428 L 59.1,523.151 L 58.95,523.2 L 58.801,523.25 L 58.627,523.3 L 58.477,523.35 L 58.327,523.399 L 58.178,523.449 L 58.029,523.474 L 57.854,523.524 L 57.705,523.574 L 57.555,523.599 L 57.406,523.624 L 57.232,523.648 L 57.082,523.673 L 56.933,523.698 L 56.784,523.723 L 56.609,523.748 L 56.46,523.773 L 56.31,523.773 L 56.136,523.798 L 55.987,523.798 L 55.837,523.823 L 54.866,523.823 L 54.716,523.798 L 54.392,523.798 L 54.243,523.773 L 54.069,523.773 L 61.74,533.81 L 62.487,533.661 L 62.636,533.461 L 62.835,533.162 L 63.01,532.714 L 63.209,532.191 L 63.408,531.593 L 63.582,530.921 L 63.782,530.198 L 63.956,529.451 L 64.13,528.68 L 64.305,527.932 L 64.454,527.235 L 64.579,526.562 L 64.703,525.94 L 64.803,525.417 L 64.877,524.969 L 64.927,524.669 L 65.55,520.511" id="path7120" style="fill:#ffffff;fill-opacity:1;fill-rule:evenodd;stroke:none"/>
          </g>
        </g>
      </g>
    </g>
  </g>
</svg>
